lib/flags/s/496.svg

<svg xmlns="http://www.w3.org/2000/svg" fill="none" viewBox="0 0 16 12"><mask id="496_svg__a" width="16" height="12" x="0" y="0" mask-type="alpha" maskUnits="userSpaceOnUse"><rect width="16" height="12" fill="#fff" rx="-1"/></mask><g fill-rule="evenodd" clip-rule="evenodd" mask="url(#496_svg__a)"><path fill="#4C67E8" d="M5 0H11V12H5V0Z"/><path fill="#C51918" d="M11 0H16V12H11V0zM0 0H6V12H0V0z"/><path fill="#F8D000" d="M3.00694 3.44208C2.50026 3.44208 2.56677 2.94841 2.56677 2.94841L2.807 2.42961V2.6386V2.94841C2.807 3.01514 2.89805 2.88168 2.89805 2.72103C2.89805 2.56037 3.00694 2.3198 3.00694 2.3198C3.00694 2.3198 3.01131 2.23936 3.01432 2.15993C3.03175 2.2008 3.06668 2.23618 3.11972 2.2899C3.12897 2.29927 3.13877 2.30919 3.14912 2.3198C3.21172 2.38395 3.20327 2.55388 3.19597 2.7009C3.18935 2.83405 3.18367 2.94841 3.23253 2.94841C3.33535 2.94841 3.3277 2.48903 3.3277 2.48903L3.50027 2.94841C3.50027 2.94841 3.51361 3.44208 3.00694 3.44208ZM3.00694 2.03224C3.01983 1.95687 3.0182 2.05756 3.01432 2.15993C2.99977 2.12581 2.99742 2.08787 3.00694 2.03224ZM3.76923 4.34187C3.76923 4.74322 3.43344 5.06857 3.01923 5.06857C2.60502 5.06857 2.26923 4.74322 2.26923 4.34187C2.26923 3.94052 2.60502 3.61517 3.01923 3.61517C3.43344 3.61517 3.76923 3.94052 3.76923 4.34187ZM1.88462 5.70211H1V9.98778H1.88462V5.70211ZM5 5.70211H4.11538V9.98778H5V5.70211ZM2.11538 5.73937L2.97775 6.2733L3.94969 5.73937H2.11538ZM2.97775 9.99997L2.11538 9.46605H3.94969L2.97775 9.99997ZM2.11538 6.44744H3.92308V6.78284H2.11538V6.44744ZM3.92308 8.94432H2.11538V9.27972H3.92308V8.94432ZM3.03846 8.75798C3.54826 8.75798 3.96154 8.35754 3.96154 7.86358C3.96154 7.36962 3.54826 6.96918 3.03846 6.96918C2.52866 6.96918 2.11538 7.36962 2.11538 7.86358C2.11538 8.35754 2.52866 8.75798 3.03846 8.75798ZM2.0016 4.60807C2.0016 4.60807 2.03268 5.54174 2.95293 5.54174C3.87319 5.54174 4.02172 4.60807 4.02172 4.60807C4.02172 4.60807 3.66552 5.18001 3.01166 5.18001C2.3578 5.18001 2.0016 4.60807 2.0016 4.60807Z"/></g></svg>

<svg xmlns="http://www.w3.org/2000/svg" fill="none" viewBox="0 0 16 12"><mask id="496_svg__a" width="16" height="12" x="0" y="0" maskUnits="userSpaceOnUse"><rect width="16" height="12" fill="#fff" rx="-1"/></mask><g fill-rule="evenodd" clip-rule="evenodd" mask="url(#496_svg__a)"><path fill="#4C67E8" d="M5 0h6v12H5V0z"/><path fill="#C51918" d="M11 0h5v12h-5V0zM0 0h6v12H0V0z"/><path fill="#F8D000" d="M3.007 3.442c-.507 0-.44-.494-.44-.494l.24-.518v.519c0 .066.091-.067.091-.228 0-.16.109-.401.109-.401l.007-.16a.47.47 0 00.106.13l.03.03c.062.064.053.234.046.38-.007.134-.012.248.037.248.102 0 .095-.459.095-.459l.172.46s.014.493-.493.493zm0-1.41c.013-.075.011.026.007.128a.218.218 0 01-.007-.128zm.762 2.31a.739.739 0 01-.75.727.739.739 0 01-.75-.727c0-.401.336-.727.75-.727s.75.326.75.727zm-1.884 1.36H1v4.286h.885V5.702zm3.115 0h-.885v4.286H5V5.702zm-2.885.037l.863.534.972-.534H2.115zM2.978 10l-.863-.534H3.95L2.978 10zm-.863-3.553h1.808v.336H2.115v-.336zm1.808 2.497H2.115v.336h1.808v-.336zm-.885-.186c.51 0 .924-.4.924-.894s-.414-.895-.924-.895-.923.4-.923.895c0 .494.414.894.923.894zm-1.036-4.15s.03.934.95.934c.921 0 1.07-.934 1.07-.934s-.356.572-1.01.572-1.01-.572-1.01-.572z"/></g></svg>
